storage/app/icons/phosphoricons/regular/clipboard-text.svg

<svg xmlns="http://www.w3.org/2000/svg" fill="currentColor" viewBox="0 0 256 256"><path d="M168 152a8 8 0 0 1-8 8H96a8 8 0 0 1 0-16h64a8 8 0 0 1 8 8m-8-40H96a8 8 0 0 0 0 16h64a8 8 0 0 0 0-16m56-64v168a16 16 0 0 1-16 16H56a16 16 0 0 1-16-16V48a16 16 0 0 1 16-16h36.26a47.92 47.92 0 0 1 71.48 0H200a16 16 0 0 1 16 16M96 64h64a32 32 0 0 0-64 0m104-16h-26.75A47.9 47.9 0 0 1 176 64v8a8 8 0 0 1-8 8H88a8 8 0 0 1-8-8v-8a47.9 47.9 0 0 1 2.75-16H56v168h144Z"/></svg>

<svg xmlns="http://www.w3.org/2000/svg" viewBox="0 0 256 256" fill="currentColor"><path d="M168,152a8,8,0,0,1-8,8H96a8,8,0,0,1,0-16h64A8,8,0,0,1,168,152Zm-8-40H96a8,8,0,0,0,0,16h64a8,8,0,0,0,0-16Zm56-64V216a16,16,0,0,1-16,16H56a16,16,0,0,1-16-16V48A16,16,0,0,1,56,32H92.26a47.92,47.92,0,0,1,71.48,0H200A16,16,0,0,1,216,48ZM96,64h64a32,32,0,0,0-64,0ZM200,48H173.25A47.93,47.93,0,0,1,176,64v8a8,8,0,0,1-8,8H88a8,8,0,0,1-8-8V64a47.93,47.93,0,0,1,2.75-16H56V216H200Z"/></svg>
